X:1
T:Will You Come to the Cross?
T:Will You Come to the Cross?
T:William Howard Doane
T:Frances Jane (Fanny) Crosby, 1904
T:Public Domain Courtesy of the Cyber Hymnal™
T:Public Domain Courtesy of the Cyber Hymnal™
C:William Howard Doane
Z:Public Domain
Z:Courtesy of the Cyber Hymnal™
%%score ( 1 2 ) ( 3 4 )
L:1/8
Q:1/4=105
M:4/4
K:G
V:1 treble 
V:2 treble 
V:3 bass 
V:4 bass 
V:1
 [DG]2 | [GB]2 [GB]2 ([GB][DA]) [DG]2 | [EG]2 [CE]2 [B,D]2 [DG]2 | [DF]2 [DG]2 [FA]2 G[FA] | %4
w: 1.~O|bur- dened soul, * no|lon- ger wait, But|give your wan- derings o’er;|
w: 2.~Be-|hold a foun- * tain|filled with blood, He|o- pened long a- go;|
w: 3.~Be-|hold a straight * and|nar- row path That|leads to end- less day;|
w: 4.~Then|turn to Him * in|sim- ple faith, Ac-|cept His prom- ise true;|
 [GB]6 [DG]2 | [GB]2 [GB]2 ([GB][DA]) [DG]2 | [EG]2 [CE]2 [B,D]2 [DG]2 | [DF]2 [DG]2 [DB]2 [DA]2 | %8
w: * Now|hum- bly kneel * at|Je- sus’ feet, And|slight His call no|
w: * And|there your sins, * tho’|crim- son red, Shall|be as white as|
w: * O|seek it now * thro’|Christ the Lord: There|is no o- ther|
w: * And|O! be- lieve * with|all your heart That|Je- sus died for|
 [DG]6 ||"^Refrain" [DF][EG] | [FA]2 [FA]>[FA] [FA]3 [FB] | [FA]G [DG]>[DG] [DG]2 [DG][DA] | %12
w: more.||||
w: snow.||||
w: way.||||
w: you.||||
 [DB]2 [DB]>[DB] [DB]3 [Gc] | [GB][FA] [FA]>[FA] [FA]2 [DB][Dc] | [Gd]2 [Gd]>[Gd] [Gd]3 [GB] | %15
w: |||
w: |||
w: |||
w: |||
 [EA][EG] [EG]>[Ec] [Ec]2 [Ec][Ec] | [DB]2 [GB][GB] [FA]2 [FA]2 | G6 |] %18
w: |||
w: |||
w: |||
w: |||
V:2
 x2 | x8 | x8 | x6 G x | x8 | x8 | x8 | x8 | x6 || x2 | x8 | x G x6 | x8 | x8 | x8 | x8 | x8 | %17
 G6 |] %18
V:3
 [G,B,]2 | [G,D]2 [G,D]2 (DC) [G,B,]2 | [C,C]2 [C,G,]2 [G,,G,]2 [G,,B,]2 | %3
w: |||
 [D,A,]2 [D,B,]2 [D,C]2 (B,D) | [G,D]6 [G,B,]2 | [G,D]2 [G,D]2 (DC) [G,B,]2 | %6
w: |||
 [C,C]2 [C,G,]2 [G,,G,]2 [G,,B,]2 | [D,A,]2 [D,B,]2 [D,G,]2 [D,C]2 | [G,,B,]6 || [D,A,][D,A,] | %10
w: |||Will you|
 [D,D]2 [D,D]>[D,D] [D,D]3 [D,D] | [G,,C][G,,B,] [G,,B,]>[G,,B,] [G,,B,]2 [B,,G,][D,F,] | %12
w: come to the cross Where|hap- py you may be? Will you|
 G,2 G,>G, G,3 [C,E] | [D,D][D,D] [D,D]>[D,D] [D,D]2 G,[G,A,] | %14
w: come to the cross, His|blood your on- ly plea? In the|
 [G,B,]2 [G,B,]>[G,B,] [G,B,]3 [G,D] | [C,C][C,C] [C,C]>[C,G,] [C,G,]2 [C,G,][C,G,] | %16
w: cross, bless- èd cross, Is|par- don full and free; Will you|
 [D,G,]2 [D,D][D,D] [D,D]2 [D,C]2 | [G,,B,]6 |] %18
w: come? He will save you|there!|
V:4
 x2 | x4 G,2 x2 | x8 | x6 D,2 | x8 | x4 G,2 x2 | x8 | x8 | x6 || x2 | x8 | x8 | G,2 G,>G, G,3 x | %13
 x6 G, x | x8 | x8 | x8 | x6 |] %18

